images/V&P_Logo7_Vector-01.svg

<?xml version="1.0" encoding="UTF-8" standalone="no"?>
<!DOCTYPE svg PUBLIC "-//W3C//DTD SVG 1.1//EN" "http://www.w3.org/Graphics/SVG/1.1/DTD/svg11.dtd">
<svg width="100%" height="100%" viewBox="0 0 2100 2100" version="1.1" xmlns="http://www.w3.org/2000/svg" xmlns:xlink="http://www.w3.org/1999/xlink" xml:space="preserve" xmlns:serif="http://www.serif.com/" style="fill-rule:evenodd;clip-rule:evenodd;stroke-linejoin:round;stroke-miterlimit:2;">
    <g id="Layer_group">
        <g id="Layer_group-2">
            <g id="Vector_layer">
                <path d="M947.64,1148.27L809,1485.09L613.85,1485.09L367.47,857.77L284.53,827.85L284.53,737L662.64,731.66L662.64,827.84L572.38,858.84L684.59,1165.55L723.59,1297.01L762.59,1170.9L883.34,859.9L790.65,827.84L790.65,737L1155.34,731.66L1155.34,827.84L1066.34,859.9L1043.19,916.137C1035,918.105 1026.98,920.409 1019.13,923.049C988.023,933.511 962.986,950.053 943.99,972.627C924.903,995.311 915.273,1024.88 915.273,1061.4C915.273,1095.22 926.068,1124.17 947.64,1148.27ZM1039.88,924.179L950.619,1141.04C931.715,1118.75 922.273,1092.2 922.273,1061.4C922.273,1026.76 931.24,998.653 949.346,977.134C967.545,955.507 991.561,939.706 1021.36,929.684C1027.43,927.643 1033.61,925.807 1039.88,924.179Z" style="fill:white;fill-rule:nonzero;"/>
            </g>
        </g>
    </g>
    <g transform="matrix(1,0,0,1,858.13,1489.94)">
        <g id="Pixel_layer_Image">
            <g>
                <path d="M248.231,9.703C209.959,9.703 175.46,3.773 144.734,-8.086C114.008,-19.945 89.886,-37.868 72.367,-61.856C54.848,-85.843 46.088,-116.165 46.088,-152.82C46.088,-178.694 51.614,-202.412 62.664,-223.974C73.715,-245.536 90.829,-263.729 114.008,-278.552C129.176,-288.253 167.129,-300.902 167.129,-300.902C167.129,-300.902 121.959,-313.86 97.433,-338.387C72.906,-362.913 60.643,-392.965 60.643,-428.542C60.643,-464.119 69.941,-492.958 88.538,-515.059C107.136,-537.16 131.662,-553.331 162.118,-563.573C192.574,-573.815 225.591,-578.936 261.168,-578.936C289.738,-578.936 318.846,-576.241 348.494,-570.85C378.141,-565.46 406.98,-557.374 435.011,-546.593L427.734,-418.839L356.579,-418.839L343.125,-483.986C343.125,-483.986 324.631,-488.378 315.747,-489.993C300.923,-492.689 285.964,-494.036 270.871,-494.036C242.841,-494.036 220.335,-488.107 203.355,-476.248C186.375,-464.389 177.885,-444.983 177.885,-418.031C177.885,-392.696 187.453,-373.29 206.59,-359.814C225.726,-346.337 249.848,-339.599 278.957,-339.599L522.336,-339.599L522.336,-278.957L466.545,-262.824L466.545,-181.928C466.545,-140.961 457.516,-106.192 439.458,-77.623C421.4,-49.053 396.065,-27.357 363.452,-12.533C330.84,2.291 292.433,9.703 248.231,9.703ZM261.168,-79.24C289.738,-79.24 312.512,-87.326 329.492,-103.497C346.472,-119.668 354.962,-143.386 354.962,-174.651L354.962,-257.125L268.445,-257.125C245.266,-257.125 225.861,-253.217 210.228,-245.401C194.596,-237.585 183.006,-227.073 175.46,-213.867C167.913,-200.66 164.14,-185.702 164.14,-168.991C164.14,-140.961 173.169,-118.995 191.227,-103.093C209.285,-87.191 232.599,-79.24 261.168,-79.24Z" style="fill:white;fill-rule:nonzero;"/>
            </g>
        </g>
    </g>
    <g id="Layer_group-3">
        <g id="Vector_layer-2">
            <path d="M1295.49,1252.18L1295.49,1251.04L1296.49,1188.52L1361.22,1166.91L1367.16,814.91L1303.16,791.6L1304.23,727.94L1501.62,726.8L1583.12,727.88C1595.83,728.053 1608.08,728.78 1619.85,730.06L1620.33,730.06C1660.42,734.47 1694.13,745.21 1720.62,761.44L1720.85,761.58L1720.99,761.67C1728.79,766.427 1736.15,771.858 1743,777.9C1773.71,805.14 1789.83,842.59 1789.07,887.9C1788.19,939.99 1772.34,980.84 1743,1010.68C1703,1051.32 1637.81,1071.93 1549.14,1071.93L1541.41,1071.93L1495.94,1071.33L1494.31,1168.67L1558.31,1191.98L1557.24,1255.64L1295.49,1252.18ZM1497.39,983.7L1542.84,984.29L1546.24,984.29C1553.68,984.29 1560.77,983.957 1567.51,983.29C1586.16,981.46 1602.1,977.12 1615.09,970.35C1619.11,968.257 1622.95,965.846 1626.58,963.14C1630.76,960.026 1634.59,956.469 1638,952.53L1638.3,952.18L1638.55,951.88L1638.6,951.88C1645.37,943.704 1650.24,934.116 1652.83,923.82C1652.83,923.79 1652.83,923.76 1652.83,923.73C1652.83,923.62 1652.83,923.52 1652.91,923.4C1652.94,923.295 1652.97,923.188 1652.99,923.08C1653,923.054 1653,923.026 1652.99,923C1654.73,915.865 1655.64,908.554 1655.72,901.21C1655.81,896.585 1655.6,891.959 1655.1,887.36C1653.1,869.54 1646.54,854.22 1635.45,842.52C1635.41,842.471 1635.36,842.424 1635.31,842.38C1620.37,826.78 1597.69,818.06 1568.77,817.68L1500.15,816.77L1497.39,983.7Z" style="fill:white;fill-rule:nonzero;"/>
        </g>
    </g>
</svg>

<svg xmlns="http://www.w3.org/2000/svg" viewBox="0 0 2100 2100"><defs><style>.cls-1,.cls-2{fill:#fff;}.cls-2{font-size:808.57px;stroke:#2dc0c4;stroke-linejoin:round;stroke-width:7px;font-family:Bitter-Bold, Bitter;font-weight:700;}</style></defs><g id="Layer_group" data-name="Layer group"><g id="Layer_group-2" data-name="Layer group"><g id="Vector_layer" data-name="Vector layer"><path class="cls-1" d="M613.85,1485.09,367.47,857.77l-82.94-29.92V737l378.11-5.34v96.18l-90.26,31,112.21,306.71,39,131.46,39-126.11,120.75-311-92.69-32.06V737l364.69-5.34v96.18l-89,32.06L809,1485.09Z"/></g></g></g><g id="Pixel_layer_Image" data-name="Pixel layer Image"><text class="cls-2" transform="translate(858.13 1489.94)">&amp;</text></g><g id="Layer_group-3" data-name="Layer group"><g id="Vector_layer-2" data-name="Vector layer"><path class="cls-1" d="M1295.49,1252.18h0v-1.05s0-.06,0-.09l1-62.52,64.73-21.61,5.94-352-64-23.31,1.07-63.66,197.39-1.14,81.5,1.08q19.07.26,36.73,2.18l.36,0h.12c40.09,4.41,73.8,15.15,100.29,31.38l.23.14.14.09A156.38,156.38,0,0,1,1743,777.9h0c30.71,27.24,46.83,64.69,46.07,110-.88,52.09-16.73,92.94-46.07,122.78h0c-40,40.64-105.19,61.25-193.86,61.25-2.56,0-5.13,0-7.73,0l-45.47-.6-1.63,97.34,64,23.31-1.07,63.66h0Zm201.9-268.48,45.45.59c1.14,0,2.28,0,3.4,0h0q11.16,0,21.27-1c18.65-1.83,34.59-6.17,47.58-12.94a84.92,84.92,0,0,0,11.49-7.21A72.18,72.18,0,0,0,1638,952.53l.06-.07.24-.28.25-.3.05,0a71.26,71.26,0,0,0,14.23-28.06.29.29,0,0,1,0-.09c0-.11,0-.21.08-.33a3,3,0,0,0,.08-.32.19.19,0,0,0,0-.08,96.23,96.23,0,0,0,2.73-21.79,109.41,109.41,0,0,0-.62-13.85c-2-17.82-8.56-33.14-19.65-44.84h0a1.85,1.85,0,0,0-.14-.14c-14.94-15.6-37.62-24.32-66.54-24.7l-68.62-.91Z"/></g></g></svg>
